src/assets/filled/Whatsapp.svg

<svg width="24" height="24" viewBox="0 0 24 24"  xmlns="http://www.w3.org/2000/svg">
<path d="M21.98 11.4104C21.64 5.61044 16.37 1.14045 10.3 2.14045C6.12004 2.83045 2.77005 6.22043 2.12005 10.4004C1.74005 12.8204 2.24007 15.1104 3.33007 17.0004L2.44006 20.3104C2.24006 21.0604 2.93004 21.7404 3.67004 21.5304L6.93005 20.6304C8.41005 21.5004 10.14 22.0004 11.99 22.0004C17.63 22.0004 22.31 17.0304 21.98 11.4104ZM16.8801 15.7204C16.7901 15.9004 16.68 16.0704 16.54 16.2304C16.29 16.5004 16.02 16.7004 15.72 16.8204C15.42 16.9504 15.09 17.0104 14.74 17.0104C14.23 17.0104 13.68 16.8905 13.11 16.6405C12.53 16.3905 11.9601 16.0604 11.3901 15.6504C10.8101 15.2304 10.2701 14.7604 9.75005 14.2504C9.23005 13.7304 8.77003 13.1804 8.35003 12.6104C7.94003 12.0404 7.61005 11.4704 7.37005 10.9004C7.13005 10.3304 7.01006 9.78045 7.01006 9.26045C7.01006 8.92044 7.07006 8.59044 7.19006 8.29044C7.31006 7.98044 7.50007 7.70045 7.77007 7.45045C8.09007 7.13045 8.44005 6.98045 8.81005 6.98045C8.95005 6.98045 9.09002 7.01044 9.22002 7.07044C9.35002 7.13044 9.47005 7.22044 9.56005 7.35044L10.72 8.99043C10.81 9.12043 10.88 9.23043 10.92 9.34043C10.97 9.45043 10.99 9.55043 10.99 9.65043C10.99 9.77043 10.9501 9.89045 10.8801 10.0104C10.8101 10.1304 10.72 10.2504 10.6 10.3704L10.22 10.7704C10.16 10.8304 10.1401 10.8904 10.1401 10.9704C10.1401 11.0104 10.15 11.0504 10.16 11.0904C10.18 11.1304 10.1901 11.1604 10.2001 11.1904C10.2901 11.3604 10.45 11.5704 10.67 11.8304C10.9 12.0904 11.1401 12.3604 11.4001 12.6204C11.6701 12.8904 11.9301 13.1304 12.2001 13.3604C12.4601 13.5804 12.68 13.7304 12.85 13.8204C12.88 13.8304 12.9101 13.8504 12.9401 13.8604C12.9801 13.8804 13.0201 13.8804 13.0701 13.8804C13.1601 13.8804 13.2201 13.8504 13.2801 13.7904L13.66 13.4104C13.79 13.2804 13.9101 13.1904 14.0201 13.1304C14.1401 13.0604 14.2501 13.0204 14.3801 13.0204C14.4801 13.0204 14.5801 13.0404 14.6901 13.0904C14.8001 13.1404 14.92 13.2004 15.04 13.2904L16.7001 14.4704C16.8301 14.5604 16.92 14.6704 16.98 14.7904C17.03 14.9204 17.0601 15.0404 17.0601 15.1804C17.0001 15.3504 16.9601 15.5404 16.8801 15.7204Z" />
</svg>

<?xml version="1.0" encoding="UTF-8"?>
<svg width="24" height="24" viewBox="0 0 24 24" xmlns="http://www.w3.org/2000/svg">
 <path d="m21.98 11.41c-0.34-5.8-5.61-10.27-11.68-9.27-4.18 0.69-7.53 4.08-8.18 8.26-0.38 2.42 0.12002 4.71 1.21 6.6l-0.89001 3.31c-0.2 0.75 0.48998 1.43 1.23 1.22l3.26-0.9c1.48 0.87 3.21 1.37 5.06 1.37 5.64 0 10.32-4.97 9.99-10.59zm-5.0999 4.31c-0.09 0.18-0.2001 0.35-0.3401 0.51-0.25 0.27-0.52 0.47-0.82 0.59-0.3 0.13-0.63 0.19-0.98 0.19-0.51 0-1.06-0.1199-1.63-0.3699-0.58-0.25-1.1499-0.5801-1.7199-0.9901-0.58-0.42-1.12-0.89-1.64-1.4-0.52-0.52-0.98002-1.07-1.4-1.64-0.41-0.57-0.73998-1.14-0.97998-1.71s-0.35999-1.12-0.35999-1.64c0-0.34001 0.06-0.67001 0.18-0.97001 0.12-0.31 0.31001-0.58999 0.58001-0.83999 0.32-0.32 0.66998-0.47 1.04-0.47 0.14 0 0.27997 0.02999 0.40997 0.08999s0.25003 0.15 0.34003 0.28l1.16 1.64c0.09 0.13 0.16 0.24 0.2 0.35 0.05 0.11 0.07 0.21 0.07 0.31 0 0.12-0.0399 0.24002-0.1099 0.35997-0.07 0.12-0.1601 0.24-0.2801 0.36l-0.38 0.4c-0.06 0.06-0.0799 0.12-0.0799 0.2 0 0.04 0.0099 0.08 0.0199 0.12 0.02 0.04 0.0301 0.07 0.0401 0.1 0.09 0.17 0.2499 0.38 0.4699 0.64 0.23 0.26 0.4701 0.53 0.7301 0.79 0.27 0.27 0.53 0.51 0.8 0.74 0.26 0.22 0.4799 0.37 0.6499 0.46 0.03 0.01 0.0601 0.03 0.0901 0.04 0.04 0.02 0.08 0.02 0.13 0.02 0.09 0 0.15-0.03 0.21-0.09l0.3799-0.38c0.13-0.13 0.2501-0.22 0.3601-0.28 0.12-0.07 0.23-0.11 0.36-0.11 0.1 0 0.2 0.02 0.31 0.07s0.2299 0.11 0.3499 0.2l1.6601 1.18c0.13 0.09 0.2199 0.2 0.2799 0.32 0.05 0.13 0.0801 0.25 0.0801 0.39-0.06 0.17-0.1 0.36-0.18 0.54z"/>
</svg>
